X:1
T:Compliments to the LeDucs
L:1/8
M:C|
C:T. S. Macdonald
K:G
%%text Slowish
D | G>DB<G d>BG>B | ^c<Aa>g f/g/f/e/ d>D | G>DB<G d<Bg>B | c>e a/g/f/a/ g<G G :|
d | g>db<g a/g/f/e/ d>f | e>fg>d c<AA>d | g>db<g a<ff>d | c>e d/c/B/A/ B<GG>f |
g>db<g a/g/f/e/ d>f | e>fg>d c<AA>B | G>DB<G d<Bg>B | c>e a/g/f/a/ g<G G |]

